X: 33799
T: Ray's Classic
R: polka
M: 2/4
K: Gmajor
|:G>F GD|EG ED|EA AG/A/|BA AB/A/|
G>F GD|EG ED|EA AG/A/|BG G2:|
|:d>c dG|e2e2|Ae Ae|f2f2|
Bf Bf|g2f>e|dB AG/A/|BG G2:|

